svg/circle-arrow-right.svg

<svg width="24" height="24" viewBox="0 0 24 24" fill="none" xmlns="http://www.w3.org/2000/svg">
<path d="M12 4C7.58172 4 4 7.58172 4 12C4 16.4183 7.58172 20 12 20C16.4183 20 20 16.4183 20 12C20 7.58172 16.4183 4 12 4ZM2 12C2 6.47715 6.47715 2 12 2C17.5228 2 22 6.47715 22 12C22 17.5228 17.5228 22 12 22C6.47715 22 2 17.5228 2 12ZM12.2929 7.29289C12.6834 6.90237 13.3166 6.90237 13.7071 7.29289L17.7071 11.2929C18.0976 11.6834 18.0976 12.3166 17.7071 12.7071L13.7071 16.7071C13.3166 17.0976 12.6834 17.0976 12.2929 16.7071C11.9024 16.3166 11.9024 15.6834 12.2929 15.2929L14.5858 13H7C6.44772 13 6 12.5523 6 12C6 11.4477 6.44772 11 7 11H14.5858L12.2929 8.70711C11.9024 8.31658 11.9024 7.68342 12.2929 7.29289Z" fill="#0D0D0D"/>
</svg>

<svg width="24" height="24" fill="none" xmlns="http://www.w3.org/2000/svg"><path d="M12 4a8 8 0 100 16 8 8 0 000-16zM2 12C2 6.477 6.477 2 12 2s10 4.477 10 10-4.477 10-10 10S2 17.523 2 12zm10.293-4.707a1 1 0 011.414 0l4 4a1 1 0 010 1.414l-4 4a1 1 0 01-1.414-1.414L14.586 13H7a1 1 0 110-2h7.586l-2.293-2.293a1 1 0 010-1.414z" fill="#0D0D0D"/></svg>
